X: 3
T: The Boys Of Ballisodare
R: reel
M: 4/4
L: 1/8
K: Gmaj
|:dG G2 dGeG|dG G2 BA A2|dG G2 dedB|AcBA GED2|
dG G2 dGeG|dG G2 BA A2|Bdd2 eBdB|AcBA GE D2||
|:g3a bgaf|g3a bgef|g3a bgaf|gfed (3Bcd ef|
g3a bgaf|g3a bgeg|bgaf gedB|AcBA GE D2||
|:Bd d2 (3Bcd gd|(3Bcd gd BA A2|Bd d2 eBdB|AcBA GE D2|
Bd d2 (3Bcd gd|(3Bcd gd BA A2|eB B2 eBdB|AcBA GE D2||


Tune 535	Setting 28171

